X:665
T: Geming shengli zaixiangfeng
N: C2191
O: China,Hunan Chaling
S: I, 527]
R: Xiaodiao, Ganzi shushang dabaihua]
M: 2/4
L: 1/16
K: G
B4d4 | B4d4 | B2A2d2G2 | A8 |
B2B2d2B2 | A8 | G4A2B2 | A4G4 | E2G2D2E2 | G8 |
A6B2 | A2G2E4 | E2E2G2E2 | D8

@@@ Tune index: 7220
